X:186
T: MACHT MAN INS LEBEN KAUM DEN ERSTEN SCHRITT
N: B0672
O: Europa, Mitteleuropa, Deutschland, Westerwald; Dillkreis
R: Moral - Lied, Lebenslauf, Klage
M: 4/4
L: 1/8
K: G
DGB | d3edAdc | B2z3
BcB | E3AGFEF | G2z3
DGB | d3edAdc | B2z3
BcB | E3AGFEF | G2z3
EEF | G3GFGAE | F2z3
DFA | d3edAdc | B2z3
DDD | G3GGBdd | e2z3
gdB | Ace2zDBA | G4z

